X:1
T:A minor Timothy Swan, 1801
T:Joel Barlow, 1786 (Psalm 137)                10 10. 10 10.
T:Bondage
T:Transcribed from Swan's New England Harmony, 1801.
%%score [ 1 2 3 4 ]
L:1/8
Q:1/4=120
M:4/4
K:C
V:1 treble nm="Tr." snm="Tr."
V:2 treble nm="C." snm="C."
V:3 treble-8 nm="T." snm="T."
V:4 bass nm="B." snm="B."
V:1
 A4 | B6 c2 | e6 e2 | B2 B2 B2 c2 | d8- | d4 e4 | e2 e2 e4- | e4 B4 | (A2 d2 c2) G2 | A2 d2 c4- | %10
w: ||||||||||
w: ||||||||||
w: ||||||||||
 c4 z4 | z8 | z8 | z8 | e4 A2 G2 | A8 | B4 c2 c2 | c2 e2 e4- | e4 e4 | dc BA G2 G2 | %20
w: ||||While Zi- on's|fall|in sad re-|mem- brance rose,~|_ Her|friends, * her * chil- dren,|
w: ||||Bid sa- cred|praise|in strains me-|lo- dious flow,~|_ While|they * blas- * pheme the|
w: ||||His arm a-|venge|her de- so-|la- ted walls,~|_ And|raise * her * chil- dren|
 (c2 e2 d2) f2 | e4 E4 | A8 |] %23
w: min- * * gled|with the|dead.|
w: great~ _ _ Je-|ho- vah's|name.|
w: to~ _ _ e-|ter- nal|day.|
V:2
 E4 | G6 E2 | G6 G2 | E2 E2 G2 G2 | G8- | G4 G4 | A2 A2 (G3 F | E4) E4 | (F2 D2 E2) E2 | %9
w: 1.~~A-|long the|banks where|Ba- bel's cur- rent|flows,~|_ Our|cap- tive bands~ _|_ in|deep~ _ _ de-|
w: 2.~~The|bar- barous|ty- rants,|to in- crease the|woe,~|_ With|taun- ting smiles~ _|_ a|song~ _ _ of|
w: 3.~~Yet|shall the|Lord, who|hears when Zi- on|calls,~|_ O'er-|take her foes,~ _|_ with|ter- * * ror|
 A2 G2 E4- | E4 z4 | z8 | z8 | A4 A2 A2 | G8 | A4 A2 A2 | G4 G4 | c8 | E4 G2 G2 | G6 G2 | %20
w: spon- dence strayed,~|_|||While Zi- on's|fall|in sad re-|mem- brance|rose,|Her friends, her|chil- dren,|
w: Zi- on claim;~|_|||Bid sa- cred|praise|in strains me-|lo- dious|flow,|While they blas-|pheme the|
w: and dis- may,~|_|||His arm a-|venge|her de- so-|la- ted|walls,|And raise her|chil- dren|
 (G2 E2 A2) A2 | (G4 E2) E2 | E8 |] %23
w: min- * * gled|with * the|dead.|
w: great~ _ _ Je-|ho- * vah's|name.|
w: to~ _ _ e-|ter- * nal|day.|
V:3
 e4 | e6 dc | B6 g2 | g2 e2 d2 c2 | d8- | d4 e4 | c2 c2 (B2 A2 | B4) (A2 G2) | (A4 E2) E2 | %9
w: |||||||||
w: |||||||||
w: |||||||||
 E2 G2 G4- | G4 z4 | z8 | e4 A2 G2 | A8 | B4 c2 c2 | B4 A4 | (d2 cd e4- | e4) e4 | %18
w: |||While Zi- on's|fall|in sad re-|mem- brance|rose,~ _ _ _|_ Her|
w: |||Bid sa- cred|praise|in strains me-|lo- dious|flow,~ _ _ _|_ While|
w: |||His arm a-|venge|her de- so-|la- ted|walls,~ _ _ _|_ And|
 (g2 e2) (e2 g2) | d6 d2 | (c4 dcBA | B2) e2 c2 B2 | A8 |] %23
w: friends, * her *|chil- dren,|min- * * * *|* gled with the|dead.|
w: they * blas- *|pheme the|great~ _ _ _ _|_ Je- ho- vah's|name.|
w: raise * her *|chil- dren|to~ _ _ _ _|_ e- ter- nal|day.|
V:4
 A,4 | E,6 A,2 | E,6 C,2 | E,2 E,2 G,2 C2 | G,8- | G,4 E,4 | A,2 A,2 E,4- | E,4 E,4 | %8
w: ||||||||
w: ||||||||
w: ||||||||
 (D,4 C,2) C,2 | A,,2 G,,2 C,4- | C,4 z4 | C4 C2 C2 | C,8 | D,4 D,2 D,2 | G,2 E,2 (C,4 | %15
w: |||While Zi- on's|fall|in sad re-|mem- brance rose,~|
w: |||Bid sa- cred|praise|in strains me-|lo- dious flow,~|
w: |||His arm a-|venge|her de- so-|la- ted walls,~|
 D,2 E,2 F,4 | G,4 C4- | C4) A,4 | E,6 C,2 | G,6 G,2 | C,4 D,4 | E,6 E,2 | A,,8 |] %23
w: _ _ _||* Her|friends, her|chil- dren,|min- gled|with the|dead.|
w: _ _ _||* While|they blas-|pheme the|great Je-|ho- vah's|name.|
w: _ _ _||* And|raise her|chil- dren|to e-|ter- nal|day.|

